web/packages/design/src/ResourceIcon/assets/conveyor.svg

<svg width="72" height="72" viewBox="0 0 72 72" fill="none" xmlns="http://www.w3.org/2000/svg">
<g clip-path="url(#clip0_15936_7140)">
<path d="M34.2366 0.0185555C34.6254 0.00654068 35.0157 0.000488281 35.4077 0.000488281C38.9346 0.000488281 42.3455 0.490647 45.5729 1.40542L34.7096 16.1134C31.9261 19.882 27.5862 22.065 22.8488 22.071C18.1116 22.077 13.7687 19.9197 10.9704 16.1057L8.01044 12.1108C10.2433 9.63817 12.8174 7.46991 15.66 5.67735L19.2586 10.6801C21.015 13.1219 24.6968 13.1316 26.4665 10.6991L34.2366 0.0185555Z" fill="#33C69F"/>
<path d="M54.2746 28.8338L72 34.5108C71.8401 30.6465 71.0603 26.9395 69.7561 23.4826L56.9779 19.4672C54.0658 18.5523 52.9596 15.0816 54.8034 12.6842C56.0076 11.1184 57.203 9.54615 58.3793 7.96142C55.7644 5.88881 52.8538 4.16244 49.7192 2.85314L46.9315 6.62748C44.1479 10.3961 43.3784 15.1308 44.8365 19.5646C46.2945 23.9983 49.7223 27.3944 54.2746 28.8338Z" fill="#33C69F"/>
<path d="M47.9536 69.833L47.9629 51.0623C47.9549 46.4029 50.1464 42.1324 54.0231 39.3817C57.8093 36.6452 62.6128 35.8978 67.1652 37.3371L71.9164 38.8548C71.6467 42.234 70.9023 45.4823 69.7489 48.535C68.8902 48.2603 68.0318 47.9844 67.1734 47.7084L67.1711 47.7076C66.0174 47.3368 64.8637 46.9659 63.7091 46.598C60.8802 45.6969 58.0065 47.7799 58.0065 50.703V64.3311C54.999 66.6526 51.6125 68.5214 47.9536 69.833Z" fill="#33C69F"/>
<path d="M43.7808 71.0551C41.0913 71.6735 38.2879 72.0005 35.4068 72.0005C34.8548 72.0005 34.3056 71.9887 33.7596 71.9648V65.5501C33.7596 62.585 30.8054 60.4882 27.9364 61.4034C24.7366 62.4239 21.5318 63.4308 18.3269 64.4377C17.0782 64.83 15.8277 65.2229 14.5794 65.616C11.4273 63.4698 8.63435 60.85 6.30715 57.8612L24.5624 52.0067C29.0698 50.5745 33.884 51.3334 37.7167 54.0725C41.5496 56.8118 43.771 61.0811 43.779 65.7404L43.7808 71.0551Z" fill="#33C69F"/>
<path d="M5.31091 15.484C3.14536 18.5478 1.45155 21.9583 0.33288 25.6135C2.97351 29.2229 5.6166 32.8316 8.30305 36.4078C10.0973 38.7965 9.02525 42.2272 6.16419 43.1793L0 45.2303C0.870385 48.4656 2.18746 51.5223 3.88242 54.3327L9.06369 52.6825C13.5711 51.2501 17.0227 47.8801 18.4842 43.4033C19.9602 39.0158 19.1983 34.2908 16.4001 30.4769L5.31091 15.484Z" fill="#33C69F"/>
</g>
<defs>
<clipPath id="clip0_15936_7140">
<rect width="72" height="72" fill="white" transform="translate(0 0.000488281)"/>
</clipPath>
</defs>
</svg>

<svg xmlns="http://www.w3.org/2000/svg" width="72" height="72" fill="none" viewBox="0 0 72 72"><g fill="#33c69f" clip-path="url(#a)"><path d="M34.237.019Q34.82 0 35.407 0c3.528 0 6.939.49 10.166 1.405L34.71 16.113c-2.784 3.769-7.124 5.952-11.861 5.958s-9.08-2.151-11.879-5.965L8.01 12.11a36.7 36.7 0 0 1 7.65-6.434l3.599 5.003c1.756 2.442 5.438 2.452 7.208.02zm20.038 28.815L72 34.51a35.3 35.3 0 0 0-2.244-11.028l-12.778-4.016c-2.912-.915-4.018-4.385-2.175-6.783a347 347 0 0 0 3.576-4.723 36.7 36.7 0 0 0-8.66-5.108l-2.788 3.774c-2.783 3.77-3.553 8.504-2.094 12.938 1.457 4.433 4.885 7.83 9.438 9.269m-6.321 41 .009-18.77c-.008-4.66 2.183-8.93 6.06-11.681 3.786-2.737 8.59-3.484 13.142-2.045l4.751 1.518a35.3 35.3 0 0 1-2.167 9.68q-1.288-.412-2.576-.827h-.002q-1.73-.557-3.462-1.11c-2.829-.901-5.703 1.182-5.703 4.105v13.628a36.8 36.8 0 0 1-10.052 5.502m-4.174 1.222a37.3 37.3 0 0 1-10.02.91V65.55c0-2.965-2.955-5.062-5.824-4.147-3.2 1.02-6.404 2.028-9.61 3.035l-3.747 1.178a36.6 36.6 0 0 1-8.272-7.755l18.255-5.854c4.508-1.432 9.322-.674 13.155 2.066s6.054 7.008 6.062 11.667zM5.31 15.484a35.6 35.6 0 0 0-4.977 10.13c2.64 3.609 5.284 7.218 7.97 10.794 1.794 2.389.722 5.82-2.139 6.771L0 45.23a35.5 35.5 0 0 0 3.882 9.103l5.182-1.65c4.507-1.433 7.959-4.803 9.42-9.28 1.476-4.387.714-9.112-2.084-12.926z"/></g><defs><clipPath id="a"><path fill="#fff" d="M0 0h72v72H0z"/></clipPath></defs></svg>
